X: 1
T: The Cordal
R: jig
M: 6/8
L: 1/8
K: Dmaj
|:BAF ~E3|FEF DFA|BAF EFA|B2A Bcd|
|BAF ~E3|FEF DFA|def edc|B2A Bcd:|
|:d2 e fed|~c3 ecA|dcd fed|f/f/fe fga|
|~d3 fed|c2 d ecA|dcB cBA|B2A Bcd:|


Tune 864	Setting 14033

